2 Export/Icons/Brands/YouTube.svg

<svg xmlns="http://www.w3.org/2000/svg" xmlns:xlink="http://www.w3.org/1999/xlink" width="24" height="24" viewBox="0 0 24 24">
  <defs>
    <path id="youtube-a" d="M20.6242136,7.9424765 C20.4120298,7.18219304 19.8179283,6.58809152 19.0576448,6.37590772 C17.6546354,6.0000106 12.0080853,6.0000106 12.0080853,6.0000106 C12.0080853,6.0000106 6.37579032,5.99251852 4.95852574,6.37590772 C4.19824227,6.58809152 3.60414076,7.18219304 3.39195696,7.9424765 C3.12600084,9.37888094 2.9948832,10.8369995 3.00015271,12.2978078 C2.99591001,13.7531039 3.12702335,15.2056488 3.39195696,16.6366331 C3.60414076,17.3969166 4.19824227,17.9910181 4.95852574,18.2032019 C6.36003459,18.5798387 12.0080853,18.5798387 12.0080853,18.5798387 C12.0080853,18.5798387 17.6396299,18.5798387 19.0576448,18.2032019 C19.8179283,17.9910181 20.4120298,17.3969166 20.6242136,16.6366331 C20.8836122,15.2051305 21.0091993,13.7525898 20.9993498,12.2978078 C21.010226,10.8375156 20.8846348,9.37940119 20.6242136,7.9424765 L20.6242136,7.9424765 Z M10.2059309,14.992036 L10.2059309,9.59532661 L14.9056373,12.2978078 L10.2059309,14.992036 Z"/>
  </defs>
  <g fill="none" fill-rule="evenodd">
    <polygon points="0 0 24 0 24 24 0 24"/>
    <mask id="youtube-b" fill="#fff">
      <use xlink:href="#youtube-a"/>
    </mask>
    <use fill="#000" xlink:href="#youtube-a"/>
    <g fill="#000" mask="url(#youtube-b)">
      <rect width="24" height="24"/>
    </g>
  </g>
</svg>

<svg xmlns="http://www.w3.org/2000/svg" xmlns:xlink="http://www.w3.org/1999/xlink" width="24" height="24" viewBox="0 0 24 24">
  <defs>
    <path id="youtube-a" d="M20.624 7.942a2.256 2.256 0 0 0-1.566-1.566C17.655 6 12.008 6 12.008 6s-5.632-.007-7.05.376a2.256 2.256 0 0 0-1.566 1.566A23.458 23.458 0 0 0 3 12.298a23.458 23.458 0 0 0 .392 4.339c.212.76.806 1.354 1.567 1.566 1.401.377 7.05.377 7.05.377s5.63 0 7.049-.377a2.256 2.256 0 0 0 1.566-1.566c.26-1.432.385-2.884.375-4.34a23.383 23.383 0 0 0-.375-4.355zm-10.418 7.05V9.595l4.7 2.703-4.7 2.694z"/>
  </defs>
  <g fill="none" fill-rule="evenodd">
    <polygon points="0 0 24 0 24 24 0 24"/>
    <mask id="youtube-b" fill="#fff">
      <use xlink:href="#youtube-a"/>
    </mask>
    <use fill="#000" xlink:href="#youtube-a"/>
    <g fill="#000" mask="url(#youtube-b)">
      <rect width="24" height="24"/>
    </g>
  </g>
</svg>
